X:3
T:Michael Turner's Waltz
M:3/4
R:Waltz
Z:Steve Mansfield December 2000
K:G
GA | B2 BG cA | d2d2 gf | e2e2 ge | d2d2 GA |
B2 BG cA | d2d2 cA | G2G2 AB | G4 :|AB 
|: c2 cB AG | A2 A2 Bc | d2 de dc | d2 g2 f2 |
e2 ef ge | d2d2 GA | B2 Bc BA |1 G2 A2 B2 :|2 G4||
<end>
<start>
